X:1
T:Title
%%score { ( 1 4 ) | ( 2 3 ) }
L:1/8
M:6/8
K:D
V:1 treble nm="Grand Piano"
V:4 treble 
V:2 bass 
V:3 bass 
V:1
 z3 z2[Q:1/4=100] [FA] | [FA]2 [FB] [FB]2 [=CFA] | [CGA]2 [CGB] [CGB]2 [CGA] | %3
 .[DAd]2 [DGB] [DFA]2 [CEG] |[M:5/8] [A,DF]- [A,DF]3 z |[M:1/8] [A,FA] | %6
[M:3/4] [A,FA]2 [FB] [FB]2 [FA] | A2 B B2 A | ^GA [DGB] [EGc]2 [DGB] |[M:5/8] [CA]-[CA]- [CA]3 | %10
[M:1/8] A |[M:3/4] e2 dc B[Gc] | .[Fd]2 [B,GB] [DFA]2 [DFA] | [DGB]2 [DBd][Bd] c[DGB] | %14
[M:5/8] [DFA]-[DFA]- [DFA]3 |[M:1/8] [A,EG] |[M:3/4] .F2 z2 z2 |[M:7/8] A2 d B3 e | %18
[M:3/4] dA F [CF]2 [CE] |[M:5/8] D-D- D3 |] %20
V:2
 z3 z2 [D,A,] | [D,A,]2 [A,,A,] [D,A,]2 ^D, | E,2 A,, E,2 E, | z[K:treble] cG,[K:bass] A,2 A,, | %4
[M:5/8] D,- D,3 z |[M:1/8] D, |[M:3/4] D,2 [A,,A,] [D,A,]2 [^D,=C] | %7
 [E,CE]2 [E,CE] [E,CE]2 [E,CE] | [E,E]2 z2 z2 |[M:5/8] A,-A,- A,3 |[M:1/8] A, | %11
[M:3/4][K:treble] [A,CG]2 [A,B,G][K:bass] [A,,A,]2 [A,,A,] | z[K:treble] c[K:bass] D, D,2 D, | %13
 G,2 .G,2[K:treble] A[K:bass]G, |[M:5/8] D,-D,- D,3 |[M:1/8] C, |[M:3/4] z2 z .[A,C]3 | %17
[M:7/8] [F,A,D]2 [F,A,D][K:treble] [G,DG]3 [G,B,G] | %18
[M:3/4] [A,DF]2[K:bass] [A,D] [A,,A,]2 [A,,G,] |[M:5/8] [D,F,]-[D,F,]- [D,F,]3 |] %20
V:3
 x6 | x6 | x6 | .F,3[K:treble][K:bass] z3 |[M:5/8] x5 |[M:1/8] x |[M:3/4] x6 | x6 | B,C E, E,2 E, | %9
[M:5/8] x5 |[M:1/8] x |[M:3/4][K:treble] x3[K:bass] x3 | [D,A,]2[K:treble][K:bass] z2 z2 | %13
 z2 z[K:treble] .[G,D]3[K:bass] |[M:5/8] x5 |[M:1/8] x |[M:3/4] D,E, [F,A,]E, F,[G,A,C] | %17
[M:7/8] x3[K:treble] x4 |[M:3/4] x2[K:bass] x4 |[M:5/8] x5 |] %20
V:4
 x6 | x6 | x6 | x6 |[M:5/8] x5 |[M:1/8] x |[M:3/4] x6 | x6 | x6 |[M:5/8] x5 |[M:1/8] x | %11
[M:3/4] z2 z .G3 | x6 | x6 |[M:5/8] x5 |[M:1/8] x |[M:3/4] [A,D]-[A,DE] DG FE |[M:7/8] x7 | %18
[M:3/4] x6 |[M:5/8] x5 |] %20

